packages/design-system/src/icons/assets/ic_exclamation_circle_outlined_32.svg

<svg width="32" height="32" viewBox="0 0 32 32" fill="none" xmlns="http://www.w3.org/2000/svg">
<g clip-path="url(#clip0_494_3631)">
<path d="M16 0C7.16429 0 0 7.16429 0 16C0 24.8357 7.16429 32 16 32C24.8357 32 32 24.8357 32 16C32 7.16429 24.8357 0 16 0ZM16 29.2857C8.66429 29.2857 2.71429 23.3357 2.71429 16C2.71429 8.66429 8.66429 2.71429 16 2.71429C23.3357 2.71429 29.2857 8.66429 29.2857 16C29.2857 23.3357 23.3357 29.2857 16 29.2857Z" fill="#C5C6CB"/>
<path d="M14.2858 22.2857C14.2858 22.7404 14.4664 23.1764 14.7879 23.4979C15.1094 23.8194 15.5454 24 16.0001 24C16.4547 24 16.8907 23.8194 17.2122 23.4979C17.5337 23.1764 17.7143 22.7404 17.7143 22.2857C17.7143 21.8311 17.5337 21.395 17.2122 21.0735C16.8907 20.752 16.4547 20.5714 16.0001 20.5714C15.5454 20.5714 15.1094 20.752 14.7879 21.0735C14.4664 21.395 14.2858 21.8311 14.2858 22.2857ZM15.1429 18.2857H16.8572C17.0143 18.2857 17.1429 18.1571 17.1429 18V8.28571C17.1429 8.12857 17.0143 8 16.8572 8H15.1429C14.9858 8 14.8572 8.12857 14.8572 8.28571V18C14.8572 18.1571 14.9858 18.2857 15.1429 18.2857Z" fill="#C5C6CB"/>
</g>
<defs>
<clipPath id="clip0_494_3631">
<rect width="32" height="32" fill="white"/>
</clipPath>
</defs>
</svg>

<svg xmlns="http://www.w3.org/2000/svg" width="32" height="32" fill="none"><g fill="#C5C6CB" clip-path="url(#a)"><path d="M16 0C7.164 0 0 7.164 0 16s7.164 16 16 16 16-7.164 16-16S24.836 0 16 0m0 29.286c-7.336 0-13.286-5.95-13.286-13.286S8.664 2.714 16 2.714 29.286 8.664 29.286 16 23.336 29.286 16 29.286"/><path d="M14.286 22.286a1.714 1.714 0 1 0 3.428 0 1.714 1.714 0 0 0-3.428 0m.857-4h1.714a.287.287 0 0 0 .286-.286V8.286A.287.287 0 0 0 16.857 8h-1.714a.287.287 0 0 0-.286.286V18c0 .157.129.286.286.286"/></g><defs><clipPath id="a"><path fill="#fff" d="M0 0h32v32H0z"/></clipPath></defs></svg>
